public_html/dist/img/svg/basket.svg

<svg width="24" height="28" viewBox="0 0 24 28" xmlns="http://www.w3.org/2000/svg">
<path d="M1.69544 6.29499C1.44679 6.28159 1.26963 6.27713 1.09246 6.26075C0.435084 6.19672 0.0372392 5.85721 0.00149537 5.21692C-0.0311403 4.63916 0.473936 4.18798 1.17172 4.17904C2.6481 4.16117 4.12292 4.17309 5.59929 4.17309C5.87747 4.17309 6.15566 4.17309 6.5162 4.17309C6.5162 3.47174 6.50843 2.83293 6.51776 2.19562C6.53641 0.879289 7.43777 0.012657 8.8178 0.00670076C10.8894 -0.00223359 12.961 -0.00223359 15.0326 0.00670076C16.5027 0.012657 17.387 0.873333 17.401 2.28645C17.4072 2.87909 17.4025 3.47323 17.4025 4.17458C18.5619 4.17458 19.6886 4.17458 20.8169 4.17458C21.4121 4.17458 22.0088 4.16564 22.604 4.17606C23.4308 4.18947 23.9266 4.59449 23.9204 5.23032C23.9141 5.83785 23.4619 6.20863 22.66 6.26372C22.5357 6.27266 22.4098 6.28308 22.2171 6.29946C22.1207 7.97316 22.0182 9.62602 21.9296 11.2789C21.6934 15.7386 21.4665 20.1983 21.2318 24.6581C21.1385 26.4241 20.3879 27.1105 18.5619 27.1105C14.1079 27.1105 9.65389 27.112 5.1999 27.1105C3.59298 27.1091 2.77708 26.3615 2.69472 24.804C2.37924 18.882 2.06842 12.9615 1.75605 7.03952C1.74207 6.81616 1.71875 6.5943 1.69544 6.29499ZM19.0172 24.9961C19.3529 18.7212 19.6839 12.5207 20.0149 6.32478C14.5757 6.32478 9.26071 6.32478 3.90535 6.32478C4.24103 12.5907 4.57205 18.7912 4.90307 24.9961C9.65234 24.9961 14.2819 24.9961 19.0172 24.9961ZM8.72921 4.12097C10.922 4.12097 13.0496 4.12097 15.1538 4.12097C15.1538 3.41516 15.1538 2.76295 15.1538 2.13159C12.9812 2.13159 10.8723 2.13159 8.72921 2.13159C8.72921 2.80315 8.72921 3.43749 8.72921 4.12097Z"/>
<path d="M13.048 21.8238C13.0448 22.6859 12.6408 23.1684 11.9601 23.1654C11.281 23.1624 10.8722 22.674 10.8707 21.8178C10.866 17.8525 10.866 13.8886 10.8707 9.92321C10.8722 9.06998 11.2856 8.57859 11.9632 8.58008C12.6377 8.58157 13.0448 9.07296 13.048 9.93066C13.0542 11.9364 13.0542 19.8657 13.048 21.8238Z"/>
<path d="M8.97732 21.8253C8.97422 22.6874 8.57016 23.1699 7.88947 23.1669C7.21034 23.1639 6.80161 22.6755 6.80006 21.8193C6.69594 17.6559 6.37269 14.0762 6.23438 9.72517C6.23593 8.87194 6.74878 8.57859 7.42791 8.58008C8.10238 8.58157 8.50955 9.07296 8.51265 9.93066C8.51887 11.9379 8.9851 19.8672 8.97732 21.8253Z"/>
<path d="M14.9766 21.8253C14.9797 22.6874 15.3838 23.1699 16.0645 23.1669C16.7436 23.1639 17.1523 22.6755 17.1539 21.8193C17.258 17.6559 17.5813 14.0762 17.7196 9.72517C17.718 8.87194 17.2052 8.57859 16.526 8.58008C15.8516 8.58157 15.4444 9.07296 15.4413 9.93066C15.4366 11.9379 14.9704 19.8672 14.9766 21.8253Z"/>
</g>
<defs>
</defs>
</svg>

<svg width="24" height="28" viewBox="0 0 24 28" fill="none" xmlns="http://www.w3.org/2000/svg"><path d="M1.695 6.295c-.248-.013-.425-.018-.603-.034C.435 6.197.037 5.857.002 5.217c-.033-.578.472-1.029 1.17-1.038 1.476-.018 2.95-.006 4.427-.006h.917c0-.701-.008-1.34.002-1.977.018-1.317.92-2.183 2.3-2.19 2.071-.008 4.143-.008 6.215 0 1.47.007 2.354.867 2.368 2.28.006.593.002 1.187.002 1.889h3.414c.595 0 1.192-.01 1.787.001.827.013 1.323.418 1.316 1.054-.006.608-.458.979-1.26 1.034l-.443.035c-.096 1.674-.199 3.327-.287 4.98-.237 4.46-.463 8.92-.698 13.38-.093 1.765-.844 2.451-2.67 2.451-4.454 0-8.908.002-13.362 0-1.607 0-2.423-.748-2.505-2.306-.316-5.922-.627-11.842-.939-17.764-.014-.224-.037-.446-.06-.745zm17.322 18.701l.998-18.671H3.905c.336 6.266.667 12.466.998 18.671h14.114zM8.73 4.121h6.425v-1.99H8.729v1.99z" fill="#98A6B4"/></svg>
